images/logo.svg

<svg width="188" height="25" viewBox="0 0 188 25" fill="none" xmlns="http://www.w3.org/2000/svg">
<path d="M58.7607 19.8154H68.4547V23.9923H53V20.5052L62.4953 6.09663H53.2384V1.95801H68.256V5.40686L58.7607 19.8154Z" fill="white"/>
<path d="M74.0962 17.3245C74.6524 19.2789 76.2019 20.2752 78.7048 20.2752C80.294 20.2752 81.5256 19.7388 82.3599 18.7041L85.7369 20.5818C84.108 22.8427 81.764 23.954 78.6254 23.954C75.9238 23.954 73.7784 23.1493 72.1495 21.5781C70.5206 20.007 69.6863 18.0143 69.6863 15.6385C69.6863 13.2626 70.4809 11.3082 72.1098 9.69877C73.6989 8.12763 75.7649 7.32289 78.3075 7.32289C80.6913 7.32289 82.6778 8.12763 84.2272 9.69877C85.7766 11.3082 86.5712 13.2626 86.5712 15.6001C86.5712 16.1366 86.5315 16.6731 86.4123 17.2862H74.0962V17.3245ZM74.0565 14.1823H82.3599C82.1215 13.1093 81.6448 12.3046 80.8899 11.8064C80.1351 11.2699 79.3008 11.0017 78.3473 11.0017C77.2348 11.0017 76.2813 11.2699 75.5265 11.8447C74.7716 12.4195 74.2949 13.1859 74.0565 14.1823Z" fill="white"/>
<path d="M93.7225 10.9633C94.1198 9.96701 94.7554 9.20059 95.6692 8.70242C96.583 8.20426 97.5762 7.93601 98.6886 7.93601V12.4579C97.4173 12.3046 96.2651 12.5728 95.2322 13.2243C94.239 13.8757 93.7225 14.9487 93.7225 16.4815V23.9923H89.5112V8.28091H93.7225V10.9633Z" fill="white"/>
<path d="M114.382 21.5781C112.713 23.1876 110.647 23.9923 108.263 23.9923C105.88 23.9923 103.814 23.1876 102.145 21.5781C100.476 19.9687 99.6421 18.0143 99.6421 15.6768C99.6421 13.3392 100.476 11.3849 102.145 9.77542C103.814 8.16595 105.84 7.3612 108.263 7.3612C110.687 7.3612 112.713 8.16595 114.382 9.77542C116.05 11.3849 116.885 13.3392 116.885 15.6768C116.885 18.0143 116.05 19.9687 114.382 21.5781ZM105.125 18.7807C105.959 19.5855 106.992 20.007 108.263 20.007C109.535 20.007 110.568 19.5855 111.442 18.7807C112.276 17.976 112.713 16.9413 112.713 15.6768C112.713 14.4122 112.276 13.3775 111.442 12.5728C110.607 11.7681 109.535 11.3465 108.263 11.3465C106.992 11.3465 105.959 11.7681 105.125 12.5728C104.29 13.3775 103.853 14.4122 103.853 15.6768C103.853 16.9413 104.29 17.976 105.125 18.7807Z" fill="white"/>
<path d="M128.128 5.40685C125.824 5.25357 124.672 6.13494 124.672 8.08929V8.24258H128.128V12.1513H124.672V23.9923H120.46V12.1513H118.116V8.24258H120.46V8.08929C120.46 5.8667 121.096 4.18059 122.367 3.03097C123.639 1.88136 125.546 1.3832 128.088 1.53649V5.40685H128.128Z" fill="white"/>
<path d="M144.576 1H140.365V23.954H144.576V1Z" fill="white"/>
<path d="M157.766 12.0363H154.071V18.5891C154.071 19.1256 154.23 19.5471 154.508 19.7771C154.786 20.0453 155.223 20.1603 155.74 20.1986C156.296 20.2369 156.971 20.2369 157.766 20.1986V23.8774C154.866 24.1839 152.84 23.9157 151.648 23.0726C150.456 22.2296 149.86 20.7351 149.86 18.5891V12.0363H147.039V8.12761H149.86V4.94701L154.071 3.72075V8.12761H157.766V12.0363Z" fill="white"/>
<path d="M165.195 10.9633C165.593 9.96701 166.228 9.20059 167.142 8.70242C168.056 8.20426 169.049 7.93601 170.162 7.93601V12.4579C168.89 12.3046 167.738 12.5728 166.705 13.2243C165.712 13.8757 165.195 14.9487 165.195 16.4815V23.9923H160.984V8.28091H165.195V10.9633Z" fill="white"/>
<path d="M175.525 17.3245C176.081 19.2789 177.631 20.2752 180.134 20.2752C181.723 20.2752 182.954 19.7388 183.789 18.7041L187.166 20.5818C185.576 22.8427 183.193 23.954 180.054 23.954C177.353 23.954 175.207 23.1493 173.578 21.5781C171.949 20.007 171.115 18.0143 171.115 15.6385C171.115 13.2626 171.91 11.3082 173.539 9.69877C175.128 8.12763 177.194 7.32289 179.736 7.32289C182.12 7.32289 184.107 8.12763 185.656 9.69877C187.205 11.3082 188 13.2626 188 15.6001C188 16.1366 187.96 16.6731 187.841 17.2862H175.525V17.3245ZM175.446 14.1823H183.749C183.511 13.1093 183.034 12.3046 182.279 11.8064C181.524 11.2699 180.69 11.0017 179.736 11.0017C178.624 11.0017 177.67 11.2699 176.916 11.8447C176.2 12.4195 175.684 13.1859 175.446 14.1823Z" fill="white"/>
<path d="M134.405 6.36488C133.69 6.36488 133.094 6.13495 132.578 5.63678C132.061 5.13861 131.823 4.56381 131.823 3.87404C131.823 3.18427 132.061 2.60947 132.578 2.11131C133.094 1.61314 133.69 1.34489 134.405 1.34489C135.12 1.34489 135.756 1.61314 136.233 2.11131C136.749 2.60947 136.988 3.18427 136.988 3.87404C136.988 4.56381 136.749 5.13861 136.233 5.63678C135.756 6.13495 135.12 6.36488 134.405 6.36488ZM132.339 8.24259H136.551V23.954H132.339V8.24259Z" fill="white"/>
<path d="M30.8264 3.37354L19.4981 21.4178C18.5013 23.0006 19.7519 25 21.7457 25H44.4021C46.3959 25 47.6465 23.0173 46.6496 21.4178L35.3214 3.37354C34.3245 1.77405 31.8232 1.77405 30.8264 3.37354Z" fill="#FFBD59"/>
<path d="M11.6965 21.6236L0.35019 3.58448C-0.646693 2.00064 0.603943 0 2.59771 0H25.2541C27.2479 0 28.4985 1.98397 27.5017 3.58448L16.1734 21.6403C15.1947 23.2241 12.6934 23.2241 11.6965 21.6236Z" fill="#00C2CB"/>
</svg>

<svg xmlns="http://www.w3.org/2000/svg" width="188" height="25" fill="none"  xmlns:v="https://vecta.io/nano"><path d="M58.76 19.815h9.694v4.177H53v-3.487l9.495-14.4h-9.257v-4.14h15.018v3.45l-9.495 14.4zm15.336-2.5c.556 1.954 2.106 2.95 4.6 2.95 1.6 0 2.82-.536 3.655-1.57l3.377 1.878c-1.63 2.26-3.973 3.372-7.112 3.372-2.702 0-4.847-.805-6.476-2.376s-2.463-3.564-2.463-5.94.795-4.33 2.424-5.94c1.6-1.57 3.655-2.376 6.198-2.376 2.384 0 4.37.805 5.92 2.376 1.55 1.6 2.344 3.564 2.344 5.9 0 .537-.04 1.073-.16 1.686H74.096v.038zm-.04-3.142h8.303c-.238-1.073-.715-1.878-1.47-2.376-.755-.537-1.6-.805-2.543-.805-1.112 0-2.066.268-2.82.843s-1.232 1.34-1.47 2.338zm19.667-3.22c.397-.996 1.033-1.763 1.947-2.26a6.18 6.18 0 0 1 3.019-.766v4.522a5.15 5.15 0 0 0-3.456.766c-.993.65-1.5 1.724-1.5 3.257v7.5h-4.2V8.28h4.2v2.682zm20.66 10.615c-1.67 1.6-3.735 2.414-6.12 2.414s-4.45-.805-6.118-2.414-2.503-3.564-2.503-5.9.834-4.292 2.503-5.9 3.695-2.414 6.118-2.414 4.45.805 6.12 2.414 2.503 3.564 2.503 5.9a7.86 7.86 0 0 1-2.503 5.9zm-9.257-2.797c.834.805 1.867 1.226 3.138 1.226a4.5 4.5 0 0 0 3.18-1.226c.834-.805 1.27-1.84 1.27-3.104s-.437-2.3-1.27-3.104-1.907-1.226-3.18-1.226-2.304.422-3.138 1.226-1.272 1.84-1.272 3.104.437 2.3 1.272 3.104zm23.003-13.374c-2.304-.153-3.456.728-3.456 2.682v.153h3.456v3.9h-3.456v11.84h-4.212V12.15h-2.344v-3.9h2.344V8.1c0-2.223.636-3.9 1.907-5.058s3.18-1.648 5.72-1.494v3.87h.04zM144.576 1h-4.2v22.954h4.2V1zm13.2 11.036h-3.695v6.553c0 .537.16.958.437 1.188.278.268.715.383 1.232.42.556.038 1.23.038 2.026 0v3.68c-2.9.306-4.926.038-6.118-.805s-1.788-2.338-1.788-4.484v-6.553h-2.82v-3.9h2.82v-3.18l4.2-1.226v4.407h3.695v3.9zm7.43-1.073c.398-.996 1.033-1.763 1.947-2.26a6.18 6.18 0 0 1 3.02-.766v4.522a5.15 5.15 0 0 0-3.457.766c-.993.65-1.5 1.724-1.5 3.257v7.5h-4.2V8.28h4.2v2.682zm10.33 6.362c.556 1.954 2.106 2.95 4.6 2.95 1.6 0 2.82-.536 3.655-1.57l3.377 1.878c-1.6 2.26-3.973 3.372-7.112 3.372-2.7 0-4.847-.805-6.476-2.376s-2.463-3.564-2.463-5.94.795-4.33 2.424-5.94c1.6-1.57 3.655-2.376 6.197-2.376 2.384 0 4.37.805 5.92 2.376 1.55 1.6 2.344 3.564 2.344 5.9a8.6 8.6 0 0 1-.159 1.686h-12.316v.038zm-.08-3.142h8.303c-.238-1.073-.715-1.878-1.47-2.376-.755-.537-1.6-.805-2.543-.805-1.112 0-2.066.268-2.82.843a4.15 4.15 0 0 0-1.47 2.338zm-41.04-7.818c-.715 0-1.3-.23-1.827-.728s-.755-1.073-.755-1.763.238-1.265.755-1.763 1.112-.766 1.827-.766a2.48 2.48 0 0 1 1.828.766 2.33 2.33 0 0 1 .755 1.763 2.33 2.33 0 0 1-.755 1.763c-.477.498-1.113.728-1.828.728zm-2.066 1.878h4.212v15.7h-4.212v-15.7z" fill="#fff"/><path d="M30.826 3.374L19.498 21.418C18.5 23 19.752 25 21.746 25h22.656c1.994 0 3.244-1.983 2.248-3.582L35.32 3.374c-.997-1.6-3.498-1.6-4.495 0z" fill="#ffbd59"/><path d="M11.697 21.624L.35 3.584C-.647 2 .604 0 2.598 0h22.656c1.994 0 3.244 1.984 2.248 3.584L16.173 21.64c-.98 1.584-3.48 1.584-4.477-.017z" fill="#00c2cb"/></svg>
